X: 9
T:Barrack Hill
M:6/8
L:1/8
Q:180
C:Playford
S:Manuscript
O:Playford
A:English
K:G
e2 A A2 B| e2 d B2 d| e2 A A2 B| G2 A B2 d| e2 A A2 B |e2 d B2 d| e2 d g2 B |A3 A3 :|
|: e2 d efg| a2 b g2 e| d2 B d2 e| d2 B d2 g| e2 d efg | a2 b g2 e| d2 B g2 B| A3 A3 :|

